assets/images/svg/icon-chronometer.svg

<svg height="66" viewBox="0 0 60 66" width="60" xmlns="http://www.w3.org/2000/svg"><path d="m31.556 33.686c-.069.096-.144.187-.225.276-1.127 1.254-3.061 1.257-4.194-.003-.078-.086-.152-.177-.223-.274-.541-.749-.732-1.842-.51-2.923l2.832-13.782 2.832 13.781c.221 1.082.03 2.175-.512 2.925zm-1.001-17.737c-.13-.633-.673-1.075-1.319-1.075-.647 0-1.19.442-1.32 1.075l-2.981 14.511c-.31 1.508-.031 3.004.764 4.103.102.143.211.277.326.403.852.947 1.992 1.468 3.211 1.468 1.218 0 2.358-.521 3.208-1.465.117-.129.226-.263.328-.405.796-1.1 1.074-2.596.764-4.105z"/><path d="m25.456 44.976c-3.482-.751-6.637-2.702-8.883-5.492-.244-.301-.682-.348-.981-.107-.301.243-.348.682-.107.982 2.447 3.038 5.883 5.163 9.676 5.981.05.011.1.017.149.017.321 0 .61-.224.681-.551.081-.377-.158-.748-.535-.83"/><path d="m40.407 46.256c-3.361 2.399-7.328 3.667-11.472 3.667-8.608 0-16.319-5.7-18.868-13.893.43-.703.671-1.506.677-2.357.01-1.456-.646-2.804-1.799-3.696-.108-.085-.229-.152-.346-.226.136-.088.276-.169.403-.271 1.107-.883 1.742-2.205 1.742-3.627 0-.808-.207-1.596-.598-2.281-.077-.137-.174-.262-.265-.391.126-.025.252-.043.376-.077 2.001-.561 3.397-2.4 3.397-4.472 0-.289-.037-.589-.097-.893.042-.051.082-.103.125-.155 3.774-4.571 9.333-7.193 15.253-7.193 10.9 0 19.766 8.867 19.766 19.766 0 6.373-3.101 12.391-8.294 16.099zm-32.207-10.278c-.574.519-1.317.804-2.096.804h-.021c-.839-.005-1.625-.338-2.214-.934-.589-.597-.91-1.387-.904-2.227.004-.84.337-1.626.933-2.215.592-.584 1.374-.904 2.205-.904h.023c.696.005 1.352.233 1.897.657.001.001.002.002.003.002.781.605 1.225 1.517 1.218 2.501-.005.653-.201 1.267-.57 1.781-.039.056-.08.11-.13.169-.106.131-.22.253-.344.366zm-2.096-13.266c.376 0 .735.065 1.119.207.021.008.042.017.045.018.044.017.083.032.107.04.616.275 1.136.747 1.465 1.333l.003.006c.262.458.401.989.401 1.537 0 .963-.429 1.857-1.181 2.456-.554.447-1.232.683-1.959.683-1.731 0-3.139-1.408-3.139-3.139 0-1.732 1.408-3.141 3.139-3.141zm2.91-7.22c1.384 0 2.621.923 3.008 2.246l.039.145c.062.257.093.509.093.749 0 1.402-.946 2.647-2.299 3.027-.643.177-1.301.155-1.967-.091-.004-.003-.008-.006-.013-.008-.047-.018-.087-.033-.117-.044-1.151-.513-1.894-1.642-1.894-2.884 0-1.731 1.413-3.14 3.15-3.14zm-3.769-13.09c1.205-1.205 3.164-1.205 4.369 0l9.195 9.196c-1.818.993-3.491 2.262-4.967 3.77l-8.597-8.596c-1.204-1.205-1.204-3.164 0-4.37zm21.621 3.422h4.74v3.381c-.877-.111-1.764-.187-2.671-.187-.695 0-1.384.04-2.069.106zm-2.889-3.996h10.518v2.496h-8.355c-.008 0-.015-.005-.024-.005s-.016.005-.024.005h-2.115zm20.777 5.505 3.029 3.029-4.4 4.401c-.001.001-.001.002-.002.004-1.052-.989-2.203-1.865-3.439-2.622zm13.114 12.643c-2.154-1.295-4.963-.596-6.283 1.607l-2.024 4c-.823-3.715-2.631-7.054-5.128-9.753.003-.003.007-.004.01-.007l4.931-4.93c.293-.293.293-.768 0-1.061l-4.09-4.09c-.293-.293-.768-.293-1.061 0l-5.62 5.62c-.004.004-.005.01-.008.014-1.721-.889-3.572-1.558-5.525-1.946.015-.06.036-.117.036-.182v-3.424h2.139c.414 0 .75-.336.75-.75v-3.996c0-.414-.336-.75-.75-.75h-12.018c-.414 0-.75.336-.75.75v3.996c0 .414.336.75.75.75h2.139v3.496c-1.787.304-3.515.84-5.149 1.581-.013-.016-.018-.035-.033-.049l-9.509-9.51c-1.789-1.789-4.702-1.789-6.491 0s-1.789 4.701 0 6.49l6.478 6.478c-.519-.2-1.072-.318-1.648-.318-2.564 0-4.65 2.081-4.65 4.64 0 .977.315 1.9.859 2.669-2.137.413-3.758 2.295-3.758 4.552 0 1.632.85 3.062 2.128 3.89-.266.171-.518.367-.749.595-.881.871-1.372 2.033-1.379 3.273-.009 1.24.465 2.409 1.336 3.291.87.881 2.032 1.372 3.272 1.38h.031c1.075 0 2.097-.381 2.921-1.056.685 1.924 1.634 3.71 2.807 5.317 0 .06-.008.118.007.179.346 1.425 1.077 3.245 1.955 4.868.714 1.323 1.703 2.509 2.943 3.528v13.721c0 .414.336.75.75.75s.75-.336.75-.75v-14.08c0-.229-.104-.445-.284-.588l-.095-.075c-1.169-.926-2.092-2.009-2.744-3.219-.247-.458-.476-.93-.69-1.403 3.846 3.629 9.004 5.822 14.511 5.822 4.431 0 8.674-1.356 12.269-3.923 5.554-3.965 8.87-10.4 8.87-17.216 0-.699-.038-1.389-.105-2.072.005-.01.016-.016.021-.026l2.906-5.75c.868-1.448 2.756-1.915 4.199-1.048 1.447.869 1.916 2.753 1.015 4.259l-10.098 20.803c-.687 1.44-3.136 3.459-4.022 4.117-.191.141-.304.365-.304.602v13.797c0 .414.336.75.75.75s.75-.336.75-.75v-13.426c.873-.68 3.353-2.711 4.178-4.439l10.064-20.74c1.295-2.156.595-4.963-1.56-6.258z"/><path d="m20.832 55.964c-.414 0-.75.336-.75.75v7.842c0 .414.336.75.75.75s.75-.336.75-.75v-7.842c0-.414-.336-.75-.75-.75"/><path d="m21.364 53.136c-.28-.28-.78-.28-1.06 0-.07.069-.129.149-.169.239-.031.091-.061.191-.061.29 0 .2.08.38.23.531.07.07.15.12.24.16.091.04.19.059.29.059.2 0 .381-.08.53-.219.141-.14.22-.331.22-.531 0-.099-.02-.199-.06-.29-.04-.09-.09-.17-.16-.239"/><path d="m29.774 30.585c-.28-.279-.78-.279-1.06 0-.07.07-.13.15-.17.25-.03.091-.05.181-.05.28 0 .101.02.2.05.29.04.09.1.17.17.241.14.139.33.219.53.219s.38-.08.53-.219c.07-.071.12-.151.16-.241s.06-.189.06-.29c0-.099-.02-.189-.06-.28-.04-.1-.09-.18-.16-.25"/></svg>

<?xml version="1.0" encoding="UTF-8"?>
<!DOCTYPE svg PUBLIC "-//W3C//DTD SVG 1.1//EN" "http://www.w3.org/Graphics/SVG/1.1/DTD/svg11.dtd">
<svg version="1.1" xmlns="http://www.w3.org/2000/svg" xmlns:xlink="http://www.w3.org/1999/xlink" x="0" y="0" width="60" height="66" viewBox="0, 0, 60, 66">
  <g id="Page-1">
    <path d="M31.556,33.686 C31.487,33.782 31.412,33.873 31.331,33.962 C30.204,35.216 28.27,35.219 27.137,33.959 C27.059,33.873 26.985,33.782 26.914,33.685 C26.373,32.936 26.182,31.843 26.404,30.762 L29.236,16.98 L32.068,30.761 C32.289,31.843 32.098,32.936 31.556,33.686 z M30.555,15.949 C30.425,15.316 29.882,14.874 29.236,14.874 C28.589,14.874 28.046,15.316 27.916,15.949 L24.935,30.46 C24.625,31.968 24.904,33.464 25.699,34.563 C25.801,34.706 25.91,34.84 26.025,34.966 C26.877,35.913 28.017,36.434 29.236,36.434 C30.454,36.434 31.594,35.913 32.444,34.969 C32.561,34.84 32.67,34.706 32.772,34.564 C33.568,33.464 33.846,31.968 33.536,30.459 L30.555,15.949 z" fill="#000000" id="Fill-1"/>
    <path d="M25.456,44.976 C21.974,44.225 18.819,42.274 16.573,39.484 C16.329,39.183 15.891,39.136 15.592,39.377 C15.291,39.62 15.244,40.059 15.485,40.359 C17.932,43.397 21.368,45.522 25.161,46.34 C25.211,46.351 25.261,46.357 25.31,46.357 C25.631,46.357 25.92,46.133 25.991,45.806 C26.072,45.429 25.833,45.058 25.456,44.976" fill="#000000" id="Fill-3"/>
    <path d="M40.407,46.256 C37.046,48.655 33.079,49.923 28.935,49.923 C20.327,49.923 12.616,44.223 10.067,36.03 C10.497,35.327 10.738,34.524 10.744,33.673 C10.754,32.217 10.098,30.869 8.945,29.977 C8.837,29.892 8.716,29.825 8.599,29.751 C8.735,29.663 8.875,29.582 9.002,29.48 C10.109,28.597 10.744,27.275 10.744,25.853 C10.744,25.045 10.537,24.257 10.146,23.572 C10.069,23.435 9.972,23.31 9.881,23.181 C10.007,23.156 10.133,23.138 10.257,23.104 C12.258,22.543 13.654,20.704 13.654,18.632 C13.654,18.343 13.617,18.043 13.557,17.739 C13.599,17.688 13.639,17.636 13.682,17.584 C17.456,13.013 23.015,10.391 28.935,10.391 C39.835,10.391 48.701,19.258 48.701,30.157 C48.701,36.53 45.6,42.548 40.407,46.256 z M8.2,35.978 C7.626,36.497 6.883,36.782 6.104,36.782 L6.083,36.782 C5.244,36.777 4.458,36.444 3.869,35.848 C3.28,35.251 2.959,34.461 2.965,33.621 C2.969,32.781 3.302,31.995 3.898,31.406 C4.49,30.822 5.272,30.502 6.103,30.502 L6.126,30.502 C6.822,30.507 7.478,30.735 8.023,31.159 C8.024,31.16 8.025,31.161 8.026,31.161 C8.807,31.766 9.251,32.678 9.244,33.662 C9.239,34.315 9.043,34.929 8.674,35.443 C8.635,35.499 8.594,35.553 8.544,35.612 C8.438,35.743 8.324,35.865 8.2,35.978 z M6.104,22.712 C6.48,22.712 6.839,22.777 7.223,22.919 C7.244,22.927 7.265,22.936 7.268,22.937 C7.312,22.954 7.351,22.969 7.375,22.977 C7.991,23.252 8.511,23.724 8.84,24.31 L8.843,24.316 C9.105,24.774 9.244,25.305 9.244,25.853 C9.244,26.816 8.815,27.71 8.063,28.309 C7.509,28.756 6.831,28.992 6.104,28.992 C4.373,28.992 2.965,27.584 2.965,25.853 C2.965,24.121 4.373,22.712 6.104,22.712 z M9.014,15.492 C10.398,15.492 11.635,16.415 12.022,17.738 L12.061,17.883 C12.123,18.14 12.154,18.392 12.154,18.632 C12.154,20.034 11.208,21.279 9.855,21.659 C9.212,21.836 8.554,21.814 7.888,21.568 C7.884,21.565 7.88,21.562 7.875,21.56 C7.828,21.542 7.788,21.527 7.758,21.516 C6.607,21.003 5.864,19.874 5.864,18.632 C5.864,16.901 7.277,15.492 9.014,15.492 z M5.245,2.402 C6.45,1.197 8.409,1.197 9.614,2.402 L18.809,11.598 C16.991,12.591 15.318,13.86 13.842,15.368 L5.245,6.772 C4.041,5.567 4.041,3.608 5.245,2.402 z M26.866,5.824 L31.606,5.824 L31.606,9.205 C30.729,9.094 29.842,9.018 28.935,9.018 C28.24,9.018 27.551,9.058 26.866,9.124 L26.866,5.824 z M23.977,1.828 L34.495,1.828 L34.495,4.324 L26.14,4.324 C26.132,4.324 26.125,4.319 26.116,4.319 C26.107,4.319 26.1,4.324 26.092,4.324 L23.977,4.324 L23.977,1.828 z M44.754,7.333 L47.783,10.362 L43.383,14.763 C43.382,14.764 43.382,14.765 43.381,14.767 C42.329,13.778 41.178,12.902 39.942,12.145 L44.754,7.333 z M57.868,19.976 C55.714,18.681 52.905,19.38 51.585,21.583 L49.561,25.583 C48.738,21.868 46.93,18.529 44.433,15.83 C44.436,15.827 44.44,15.826 44.443,15.823 L49.374,10.893 C49.667,10.6 49.667,10.125 49.374,9.832 L45.284,5.742 C44.991,5.449 44.516,5.449 44.223,5.742 L38.603,11.362 C38.599,11.366 38.598,11.372 38.595,11.376 C36.874,10.487 35.023,9.818 33.07,9.43 C33.085,9.37 33.106,9.313 33.106,9.248 L33.106,5.824 L35.245,5.824 C35.659,5.824 35.995,5.488 35.995,5.074 L35.995,1.078 C35.995,0.664 35.659,0.328 35.245,0.328 L23.227,0.328 C22.813,0.328 22.477,0.664 22.477,1.078 L22.477,5.074 C22.477,5.488 22.813,5.824 23.227,5.824 L25.366,5.824 L25.366,9.32 C23.579,9.624 21.851,10.16 20.217,10.901 C20.204,10.885 20.199,10.866 20.184,10.852 L10.675,1.342 C8.886,-0.447 5.973,-0.447 4.184,1.342 C2.395,3.131 2.395,6.043 4.184,7.832 L10.662,14.31 C10.143,14.11 9.59,13.992 9.014,13.992 C6.45,13.992 4.364,16.073 4.364,18.632 C4.364,19.609 4.679,20.532 5.223,21.301 C3.086,21.714 1.465,23.596 1.465,25.853 C1.465,27.485 2.315,28.915 3.593,29.743 C3.327,29.914 3.075,30.11 2.844,30.338 C1.963,31.209 1.472,32.371 1.465,33.611 C1.456,34.851 1.93,36.02 2.801,36.902 C3.671,37.783 4.833,38.274 6.073,38.282 L6.104,38.282 C7.179,38.282 8.201,37.901 9.025,37.226 C9.71,39.15 10.659,40.936 11.832,42.543 C11.832,42.603 11.824,42.661 11.839,42.722 C12.185,44.147 12.916,45.967 13.794,47.59 C14.508,48.913 15.497,50.099 16.737,51.118 L16.737,64.839 C16.737,65.253 17.073,65.589 17.487,65.589 C17.901,65.589 18.237,65.253 18.237,64.839 L18.237,50.759 C18.237,50.53 18.133,50.314 17.953,50.171 L17.858,50.096 C16.689,49.17 15.766,48.087 15.114,46.877 C14.867,46.419 14.638,45.947 14.424,45.474 C18.27,49.103 23.428,51.296 28.935,51.296 C33.366,51.296 37.609,49.94 41.204,47.373 C46.758,43.408 50.074,36.973 50.074,30.157 C50.074,29.458 50.036,28.768 49.969,28.085 C49.974,28.075 49.985,28.069 49.99,28.059 L52.896,22.309 C53.764,20.861 55.652,20.394 57.095,21.261 C58.542,22.13 59.011,24.014 58.11,25.52 L48.012,46.323 C47.325,47.763 44.876,49.782 43.99,50.44 C43.799,50.581 43.686,50.805 43.686,51.042 L43.686,64.839 C43.686,65.253 44.022,65.589 44.436,65.589 C44.85,65.589 45.186,65.253 45.186,64.839 L45.186,51.413 C46.059,50.733 48.539,48.702 49.364,46.974 L59.428,26.234 C60.723,24.078 60.023,21.271 57.868,19.976 z" fill="#000000" id="Fill-5"/>
    <path d="M20.832,55.964 C20.418,55.964 20.082,56.3 20.082,56.714 L20.082,64.556 C20.082,64.97 20.418,65.306 20.832,65.306 C21.246,65.306 21.582,64.97 21.582,64.556 L21.582,56.714 C21.582,56.3 21.246,55.964 20.832,55.964" fill="#000000" id="Fill-7"/>
    <path d="M21.364,53.136 C21.084,52.856 20.584,52.856 20.304,53.136 C20.234,53.205 20.175,53.285 20.135,53.375 C20.104,53.466 20.074,53.566 20.074,53.665 C20.074,53.865 20.154,54.045 20.304,54.196 C20.374,54.266 20.454,54.316 20.544,54.356 C20.635,54.396 20.734,54.415 20.834,54.415 C21.034,54.415 21.215,54.335 21.364,54.196 C21.505,54.056 21.584,53.865 21.584,53.665 C21.584,53.566 21.564,53.466 21.524,53.375 C21.484,53.285 21.434,53.205 21.364,53.136" fill="#000000" id="Fill-9"/>
    <path d="M29.774,30.585 C29.494,30.306 28.994,30.306 28.714,30.585 C28.644,30.655 28.584,30.735 28.544,30.835 C28.514,30.926 28.494,31.016 28.494,31.115 C28.494,31.216 28.514,31.315 28.544,31.405 C28.584,31.495 28.644,31.575 28.714,31.646 C28.854,31.785 29.044,31.865 29.244,31.865 C29.444,31.865 29.624,31.785 29.774,31.646 C29.844,31.575 29.894,31.495 29.934,31.405 C29.974,31.315 29.994,31.216 29.994,31.115 C29.994,31.016 29.974,30.926 29.934,30.835 C29.894,30.735 29.844,30.655 29.774,30.585" fill="#000000" id="Fill-11"/>
  </g>
</svg>
